X:39
T:Reel 39
M:4/4
K:Dmaj
L:1/8
A,DDE DEFE|DEFD EB,B,C|A,DDC DEFA|BdAF G2FG|EDED EF (3EDD |EDFD EDB,C|A,DDE DEFA| (3Bcd AF GEED|A2dA BAdA|AdAF GEFG|Addc dABd|eBdB AFF2|AddA AAFA|dBAF GEE2|AGFE DEFA| (3Bcd AG FDD2|
